public/icons/search.svg

<svg width="16" height="17" viewBox="0 0 16 17" fill="none" xmlns="http://www.w3.org/2000/svg">
<path id="Icon / magnifyingglass" d="M6.3833 13.3767C7.76953 13.3767 9.04785 12.9285 10.0938 12.1814L14.0283 16.116C14.2109 16.2986 14.4517 16.3899 14.709 16.3899C15.2485 16.3899 15.6304 15.9749 15.6304 15.4436C15.6304 15.1946 15.5474 14.9539 15.3647 14.7795L11.4551 10.8616C12.2769 9.78247 12.7666 8.44604 12.7666 6.99341C12.7666 3.48218 9.89453 0.610107 6.3833 0.610107C2.88037 0.610107 0 3.47388 0 6.99341C0 10.5046 2.87207 13.3767 6.3833 13.3767ZM6.3833 11.9988C3.64404 11.9988 1.37793 9.73267 1.37793 6.99341C1.37793 4.25415 3.64404 1.98804 6.3833 1.98804C9.12256 1.98804 11.3887 4.25415 11.3887 6.99341C11.3887 9.73267 9.12256 11.9988 6.3833 11.9988Z" fill="#3C3C43" fill-opacity="0.6"/>
</svg>

<svg xmlns="http://www.w3.org/2000/svg" width="16" height="17" fill="none"><path fill="#3C3C43" fill-opacity=".6" d="M6.383 13.377a6.363 6.363 0 0 0 3.71-1.196l3.935 3.935a.947.947 0 0 0 .681.274c.54 0 .921-.415.921-.946a.901.901 0 0 0-.265-.665l-3.91-3.917a6.358 6.358 0 0 0 1.312-3.869c0-3.51-2.872-6.383-6.384-6.383C2.88.61 0 3.474 0 6.993c0 3.512 2.872 6.384 6.383 6.384Zm0-1.378c-2.739 0-5.005-2.266-5.005-5.006 0-2.739 2.266-5.005 5.005-5.005 2.74 0 5.006 2.266 5.006 5.005 0 2.74-2.266 5.006-5.006 5.006Z"/></svg>
